Adwaita++/apps/16/icq.svg

<svg height="16" viewBox="0 0 16 16" width="16" xmlns="http://www.w3.org/2000/svg">
  <path d="m7.7675781.52148438c-.1765513.0288346-.3555434.08643325-.5371093.17578124-.6221099.30613698-1.1074056 1.07295898-1.2636719 1.99999998l-.0449219.2753906-.2441406-.1699218c-.3023844-.210349-.7998287-.4440507-1.1152344-.5253906-.3404741-.0878061-.8752382-.0800319-1.1914062.0175781-.7156285.220944-1.1623625.8582373-1.1640626 1.6621093-.0012294.579741.1763099 1.1074936.5664063 1.6796876l.1972656.2890624-.296875.046875c-.6588121.102381-1.4261994.4977938-1.74804685.9023438-1.01108892 1.2709024-.14104597 2.8281434 1.76171875 3.154297l.2792969.048828-.1796875.263672c-.6724576.975563-.7742263 2.07343-.2539063 2.765625.6599565.877958 1.9386003.917591 3.1210938.095703.1387621-.096446.2567719-.175781.2636719-.175781.006933 0 .0247564.099039.0390624.220703.0383548.326201.2434167.924237.4160157 1.216797.2997533.508087.8164456.90698 1.2929687 1 .5925047.115664 1.1060351-.05875 1.5859375-.539063.2126465-.212828.3279622-.371077.4511719-.621093.1491805-.302719.365234-1.012498.365234-1.201172 0-.06043.062991-.033223.341797.148437.620882.404545 1.109487.553864 1.72461.527344.344334-.01485.443084-.035644.662109-.138672 1.156992-.54425 1.330872-1.968667.404297-3.314453l-.164063-.238281.365235-.074219c1.626963-.3285537 2.490688-1.564206 1.921875-2.7500001-.159342-.332176-.593433-.7495434-1-.9589844-.310884-.16015-.982729-.3652344-1.195313-.3652344-.05225 0-.095703-.0111075-.095703-.0234375 0-.012334.065401-.1056914.144531-.2089844.203388-.2654999.481414-.8591751.558594-1.1894531.04621-.198129.061548-.3939639.048828-.6699219-.016073-.3487899-.034222-.4229388-.164062-.6855468-.178339-.360694-.44911-.6230541-.820313-.7988282-.260531-.1233409-.285309-.1284531-.789062-.1269531-.46418.001335-.55375.012725-.81836.109375-.329992.120529-.649899.2919437-.927734.4941407l-.183594.1347656-.052734-.2890625c-.1231056-.688571-.3712212-1.2052494-.779297-1.6152344-.4495572-.45165981-.952768-.63533195-1.4824219-.54882812zm.2324219 3.97851562c1.923207 0 3.5 1.5767929 3.5 3.5 0 1.923207-1.576793 3.5-3.5 3.5-1.9232071 0-3.5-1.576793-3.5-3.5 0-1.9232071 1.5767929-3.5 3.5-3.5zm0 1.6523438c-1.029867 0-1.8476562.8177892-1.8476562 1.8476562 0 1.0298669.8177892 1.8476562 1.8476562 1.8476562 1.0298669 0 1.8457031-.8177893 1.8457031-1.8476562 0-1.029867-.8158362-1.8476562-1.8457031-1.8476562z" fill="#474747"/>
</svg>

<?xml version="1.0" encoding="UTF-8" standalone="no"?>
<svg
   xmlns:dc="http://purl.org/dc/elements/1.1/"
   xmlns:cc="http://creativecommons.org/ns#"
   xmlns:rdf="http://www.w3.org/1999/02/22-rdf-syntax-ns#"
   xmlns:svg="http://www.w3.org/2000/svg"
   xmlns="http://www.w3.org/2000/svg"
   xmlns:sodipodi="http://sodipodi.sourceforge.net/DTD/sodipodi-0.dtd"
   xmlns:inkscape="http://www.inkscape.org/namespaces/inkscape"
   width="16"
   height="16"
   version="1.1"
   viewBox="0 0 16 16"
   id="svg4"
   sodipodi:docname="icq.svg"
   inkscape:version="0.92.4 (5da689c313, 2019-01-14)">
  <metadata
     id="metadata10">
    <rdf:RDF>
      <cc:Work
         rdf:about="">
        <dc:format>image/svg+xml</dc:format>
        <dc:type
           rdf:resource="http://purl.org/dc/dcmitype/StillImage" />
      </cc:Work>
    </rdf:RDF>
  </metadata>
  <defs
     id="defs8" />
  <sodipodi:namedview
     pagecolor="#ffffff"
     bordercolor="#666666"
     borderopacity="1"
     objecttolerance="10"
     gridtolerance="10"
     guidetolerance="10"
     inkscape:pageopacity="0"
     inkscape:pageshadow="2"
     inkscape:window-width="1920"
     inkscape:window-height="1016"
     id="namedview6"
     showgrid="false"
     inkscape:zoom="55.933346"
     inkscape:cx="7.9999998"
     inkscape:cy="7.9999971"
     inkscape:window-x="0"
     inkscape:window-y="27"
     inkscape:window-maximized="1"
     inkscape:current-layer="svg4" />
  <path
     style="fill:#444444"
     d="M 7.7675781 0.52148438 C 7.5910268 0.55031898 7.4120347 0.60791763 7.2304688 0.69726562 C 6.6083589 1.0034026 6.1230632 1.7702246 5.9667969 2.6972656 L 5.921875 2.9726562 L 5.6777344 2.8027344 C 5.37535 2.5923854 4.8779057 2.3586837 4.5625 2.2773438 C 4.2220259 2.1895377 3.6872618 2.1973119 3.3710938 2.2949219 C 2.6554653 2.5158659 2.2087313 3.1531592 2.2070312 3.9570312 C 2.2058018 4.5367722 2.3833411 5.0645248 2.7734375 5.6367188 L 2.9707031 5.9257812 L 2.6738281 5.9726562 C 2.015016 6.0750372 1.2476287 6.47045 0.92578125 6.875 C -0.08530767 8.1459024 0.78473528 9.7031434 2.6875 10.029297 L 2.9667969 10.078125 L 2.7871094 10.341797 C 2.1146518 11.31736 2.0128831 12.415227 2.5332031 13.107422 C 3.1931596 13.98538 4.4718034 14.025013 5.6542969 13.203125 C 5.793059 13.106679 5.9110688 13.027344 5.9179688 13.027344 C 5.9249018 13.027344 5.9427252 13.126383 5.9570312 13.248047 C 5.995386 13.574248 6.2004479 14.172284 6.3730469 14.464844 C 6.6728002 14.972931 7.1894925 15.371824 7.6660156 15.464844 C 8.2585203 15.580508 8.7720507 15.406094 9.2519531 14.925781 C 9.4645996 14.712953 9.5799153 14.554704 9.703125 14.304688 C 9.8523055 14.001969 10.068359 13.29219 10.068359 13.103516 C 10.068359 13.043086 10.13135 13.070293 10.410156 13.251953 C 11.031038 13.656498 11.519643 13.805817 12.134766 13.779297 C 12.4791 13.764447 12.57785 13.743653 12.796875 13.640625 C 13.953867 13.096375 14.127747 11.671958 13.201172 10.326172 L 13.037109 10.087891 L 13.402344 10.013672 C 15.029307 9.6851183 15.893032 8.449466 15.324219 7.2636719 C 15.164877 6.9314959 14.730786 6.5141285 14.324219 6.3046875 C 14.013335 6.1445375 13.34149 5.9394531 13.128906 5.9394531 C 13.076656 5.9394531 13.033203 5.9283456 13.033203 5.9160156 C 13.033203 5.9036816 13.098604 5.8103242 13.177734 5.7070312 C 13.381122 5.4415313 13.659148 4.8478561 13.736328 4.5175781 C 13.782538 4.3194491 13.797876 4.1236142 13.785156 3.8476562 C 13.769083 3.4988663 13.750934 3.4247174 13.621094 3.1621094 C 13.442755 2.8014154 13.171984 2.5390553 12.800781 2.3632812 C 12.54025 2.2399403 12.515472 2.2348281 12.011719 2.2363281 C 11.547539 2.2376631 11.457969 2.2490531 11.193359 2.3457031 C 10.863367 2.4662321 10.54346 2.6376468 10.265625 2.8398438 L 10.082031 2.9746094 L 10.029297 2.6855469 C 9.9061914 1.9969759 9.6580758 1.4802975 9.25 1.0703125 C 8.8004428 0.61865269 8.297232 0.43498055 7.7675781 0.52148438 z M 8 4.5 C 9.923207 4.5 11.5 6.0767929 11.5 8 C 11.5 9.923207 9.923207 11.5 8 11.5 C 6.0767929 11.5 4.5 9.923207 4.5 8 C 4.5 6.0767929 6.0767929 4.5 8 4.5 z M 8 6.1523438 C 6.970133 6.1523438 6.1523438 6.970133 6.1523438 8 C 6.1523438 9.0298669 6.970133 9.8476562 8 9.8476562 C 9.0298669 9.8476562 9.8457031 9.0298669 9.8457031 8 C 9.8457031 6.970133 9.0298669 6.1523438 8 6.1523438 z "
     id="path2" />
</svg>
